;FLAVOR:Marlin
;TIME:4185
;Filament used: 11.5089m
;Layer height: 0.4
;MINX:59.2
;MINY:59.2
;MINZ:0.3
;MAXX:140.8
;MAXY:140.8
;MAXZ:7.9
;Generated with Cura_SteamEngine 5.2.2
M140 S60
M105
M190 S60
M104 S200
M105
M109 S200
M82 ;absolute extrusion mode
G21 ;metric values
G90 ;absolute positioning
M82 ;set extruder to absolute mode
M107 ;start with the fan off
G28 X0 Y0 ;move X/Y to min endstops
G28 Z0 ;move Z to min endstops
G1 Z15.0 F9000 ;move the platform down 15mm
G92 E0 ;zero the extruded length
G1 F200 E3 ;extrude 3mm of feed stock
G92 E0 ;zero the extruded length again
G1 F9000
;Put printing message on LCD screen
M117 Printing...
G92 E0
G92 E0
G1 F1500 E-6.5
;LAYER_COUNT:20
;LAYER:0
G0 Z7.9
;TYPE:WALL-INNER
;MESH:inversion drehdingB.stl
G1 F3600 X67.6 Y132.4 E2471.55136
G1 X132.4 Y132.4 E2475.86187
G1 X132.4 Y100 E2478.01713
G1 X132.4 Y67.6 E2480.17238
G1 X67.6 Y67.6 E2484.4829
G0 F7200 X67.2 Y67.2
;TYPE:WALL-OUTER
G1 F1800 X67.2 Y132.8 E2488.84663
G1 X132.8 Y132.8 E2493.21036
G1 X132.8 Y100 E2495.39222
G1 X132.8 Y67.2 E2497.57409
G1 X67.2 Y67.2 E2501.93782
G0 F7200 X67.2 Y67.4
G0 X67.98 Y67.98
;TYPE:SKIN
G1 F1800 X67.98 Y132.02 E2506.19777
G1 X132.02 Y132.02 E2510.45773
G1 X132.02 Y100 E2512.58771
G1 X132.02 Y67.98 E2514.71769
G1 X67.98 Y67.98 E2518.97765
G0 F7200 X68.179 Y68.715
G1 F1800 X68.715 Y68.179 E2519.02807
G0 F7200 X69.281 Y68.179
G1 F1800 X68.179 Y69.281 E2519.13174
G0 F7200 X68.179 Y69.847
G1 F1800 X69.847 Y68.179 E2519.28866
G0 F7200 X70.412 Y68.179
G1 F1800 X68.179 Y70.412 E2519.49872
G0 F7200 X68.179 Y70.978
G1 F1800 X70.978 Y68.179 E2519.76204
G0 F7200 X71.544 Y68.179
G1 F1800 X68.179 Y71.544 E2520.07859
G0 F7200 X68.179 Y72.11
G1 F1800 X72.11 Y68.179 E2520.4484
G0 F7200 X72.675 Y68.179
G1 F1800 X68.179 Y72.675 E2520.87136
G0 F7200 X68.179 Y73.241
G1 F1800 X73.241 Y68.179 E2521.34756
G0 F7200 X73.807 Y68.179
G1 F1800 X68.179 Y73.807 E2521.877
G0 F7200 X68.179 Y74.372
G1 F1800 X74.372 Y68.179 E2522.4596
G0 F7200 X74.938 Y68.179
G1 F1800 X68.179 Y74.938 E2523.09545
G0 F7200 X68.179 Y75.504
G1 F1800 X75.504 Y68.179 E2523.78454
G0 F7200 X76.069 Y68.179
G1 F1800 X68.179 Y76.069 E2524.52678
G0 F7200 X68.179 Y76.635
G1 F1800 X76.635 Y68.179 E2525.32227
G0 F7200 X77.201 Y68.179
G1 F1800 X68.179 Y77.201 E2526.17101
G0 F7200 X68.179 Y77.766
G1 F1800 X77.766 Y68.179 E2527.07289
G0 F7200 X78.332 Y68.179
G1 F1800 X68.179 Y78.332 E2528.02802
G0 F7200 X68.179 Y78.898
G1 F1800 X78.898 Y68.179 E2529.0364
G0 F7200 X79.463 Y68.179
G1 F1800 X68.179 Y79.463 E2530.09793
G0 F7200 X68.179 Y80.029
G1 F1800 X80.029 Y68.179 E2531.21271
G0 F7200 X80.595 Y68.179
G1 F1800 X68.179 Y80.595 E2532.38073
G0 F7200 X68.179 Y81.161
G1 F1800 X81.161 Y68.179 E2533.602
G0 F7200 X81.726 Y68.179
G1 F1800 X68.179 Y81.726 E2534.87641
G0 F7200 X68.179 Y82.292
G1 F1800 X82.292 Y68.179 E2536.20408
G0 F7200 X82.858 Y68.179
G1 F1800 X68.179 Y82.858 E2537.58499
G0 F7200 X68.179 Y83.423
G1 F1800 X83.423 Y68.179 E2539.01905
G0 F7200 X83.989 Y68.179
G1 F1800 X68.179 Y83.989 E2540.50636
G0 F7200 X68.179 Y84.555
G1 F1800 X84.555 Y68.179 E2542.04691
G0 F7200 X85.12 Y68.179
G1 F1800 X68.179 Y85.12 E2543.64062
G0 F7200 X68.179 Y85.686
G1 F1800 X85.686 Y68.179 E2545.28757
G0 F7200 X86.252 Y68.179
G1 F1800 X68.179 Y86.252 E2546.98777
G0 F7200 X68.179 Y86.817
G1 F1800 X86.817 Y68.179 E2548.74111
G0 F7200 X87.383 Y68.179
G1 F1800 X68.179 Y87.383 E2550.54771
G0 F7200 X68.179 Y87.949
G1 F1800 X87.949 Y68.179 E2552.40755
G0 F7200 X88.514 Y68.179
G1 F1800 X68.179 Y88.514 E2554.32054
G0 F7200 X68.179 Y89.08
G1 F1800 X89.08 Y68.179 E2556.28678
G0 F7200 X89.646 Y68.179
G1 F1800 X68.179 Y89.646 E2558.30626
G0 F7200 X68.179 Y90.211
G1 F1800 X90.211 Y68.179 E2560.3789
G0 F7200 X90.777 Y68.179
G1 F1800 X68.179 Y90.777 E2562.50478
G0 F7200 X68.179 Y91.343
G1 F1800 X91.343 Y68.179 E2564.68391
G0 F7200 X91.909 Y68.179
G1 F1800 X68.179 Y91.909 E2566.91628
G0 F7200 X68.179 Y92.474
G1 F1800 X92.474 Y68.179 E2569.2018
G0 F7200 X93.04 Y68.179
G1 F1800 X68.179 Y93.04 E2571.54058
G0 F7200 X68.179 Y93.606
G1 F1800 X93.606 Y68.179 E2573.93259
G0 F7200 X94.171 Y68.179
G1 F1800 X68.179 Y94.171 E2576.37776
G0 F7200 X68.179 Y94.737
G1 F1800 X94.737 Y68.179 E2578.87617
G0 F7200 X95.303 Y68.179
G1 F1800 X68.179 Y95.303 E2581.42783
G0 F7200 X68.179 Y95.868
G1 F1800 X95.868 Y68.179 E2584.03264
G0 F7200 X96.434 Y68.179
G1 F1800 X68.179 Y96.434 E2586.6907
G0 F7200 X68.179 Y97
G1 F1800 X97 Y68.179 E2589.402
G0 F7200 X97.565 Y68.179
G1 F1800 X68.179 Y97.565 E2592.16646
G0 F7200 X68.179 Y98.131
G1 F1800 X98.131 Y68.179 E2594.98416
G0 F7200 X98.697 Y68.179
G1 F1800 X68.179 Y98.697 E2597.85511
G0 F7200 X68.179 Y99.262
G1 F1800 X99.262 Y68.179 E2600.7792
G0 F7200 X99.828 Y68.179
G1 F1800 X68.179 Y99.828 E2603.75655
G0 F7200 X68.179 Y100.394
G1 F1800 X100.394 Y68.179 E2606.78714
G0 F7200 X100.959 Y68.179
G1 F1800 X68.179 Y100.959 E2609.87088
G0 F7200 X68.179 Y101.525
G1 F1800 X101.525 Y68.179 E2613.00787
G0 F7200 X102.091 Y68.179
G1 F1800 X68.179 Y102.091 E2616.1981
G0 F7200 X68.179 Y102.657
G1 F1800 X102.657 Y68.179 E2619.44158
G0 F7200 X103.222 Y68.179
G1 F1800 X68.179 Y103.222 E2622.73821
G0 F7200 X68.179 Y103.788
G1 F1800 X103.788 Y68.179 E2626.08808
G0 F7200 X104.354 Y68.179
G1 F1800 X68.179 Y104.354 E2629.49121
G0 F7200 X68.179 Y104.919
G1 F1800 X104.919 Y68.179 E2632.94748
G0 F7200 X105.485 Y68.179
G1 F1800 X68.179 Y105.485 E2636.457
G0 F7200 X68.179 Y106.051
G1 F1800 X106.051 Y68.179 E2640.01977
G0 F7200 X106.616 Y68.179
G1 F1800 X68.179 Y106.616 E2643.63568
G0 F7200 X68.179 Y107.182
G1 F1800 X107.182 Y68.179 E2647.30485
G0 F7200 X107.748 Y68.179
G1 F1800 X68.179 Y107.748 E2651.02726
G0 F7200 X68.179 Y108.313
G1 F1800 X108.313 Y68.179 E2654.80282
G0 F7200 X108.879 Y68.179
G1 F1800 X68.179 Y108.879 E2658.63162
G0 F7200 X68.179 Y109.445
G1 F1800 X109.445 Y68.179 E2662.51367
G0 F7200 X110.01 Y68.179
G1 F1800 X68.179 Y110.01 E2666.44888
G0 F7200 X68.179 Y110.576
G1 F1800 X110.576 Y68.179 E2670.43733
G0 F7200 X111.142 Y68.179
G1 F1800 X68.179 Y111.142 E2674.47902
G0 F7200 X68.179 Y111.708
G1 F1800 X111.708 Y68.179 E2678.57397
G0 F7200 X112.273 Y68.179
G1 F1800 X68.179 Y112.273 E2682.72206
G0 F7200 X68.179 Y112.839
G1 F1800 X112.839 Y68.179 E2686.9234
G0 F7200 X113.405 Y68.179
G1 F1800 X68.179 Y113.405 E2691.17798
G0 F7200 X68.179 Y113.97
G1 F1800 X113.97 Y68.179 E2695.48572
G0 F7200 X114.536 Y68.179
G1 F1800 X68.179 Y114.536 E2699.8467
G0 F7200 X68.179 Y115.102
G1 F1800 X115.102 Y68.179 E2704.26093
G0 F7200 X115.667 Y68.179
G1 F1800 X68.179 Y115.667 E2708.72831
G0 F7200 X68.179 Y116.233
G1 F1800 X116.233 Y68.179 E2713.24893
G0 F7200 X116.799 Y68.179
G1 F1800 X68.179 Y116.799 E2717.82281
G0 F7200 X68.179 Y117.364
G1 F1800 X117.364 Y68.179 E2722.44983
G0 F7200 X117.93 Y68.179
G1 F1800 X68.179 Y117.93 E2727.1301
G0 F7200 X68.179 Y118.496
G1 F1800 X118.496 Y68.179 E2731.86361
G0 F7200 X119.061 Y68.179
G1 F1800 X68.179 Y119.061 E2736.65028
G0 F7200 X68.179 Y119.627
G1 F1800 X119.627 Y68.179 E2741.49019
G0 F7200 X120.193 Y68.179
G1 F1800 X68.179 Y120.193 E2746.38335
G0 F7200 X68.179 Y120.758
G1 F1800 X120.758 Y68.179 E2751.32966
G0 F7200 X121.324 Y68.179
G1 F1800 X68.179 Y121.324 E2756.32922
G0 F7200 X68.179 Y121.89
G1 F1800 X121.89 Y68.179 E2761.38202
G0 F7200 X122.456 Y68.179
G1 F1800 X68.179 Y122.456 E2766.48806
G0 F7200 X68.179 Y123.021
G1 F1800 X123.021 Y68.179 E2771.64726
G0 F7200 X123.587 Y68.179
G1 F1800 X68.179 Y123.587 E2776.85971
G0 F7200 X68.179 Y124.153
G1 F1800 X124.153 Y68.179 E2782.1254
G0 F7200 X124.718 Y68.179
G1 F1800 X68.179 Y124.718 E2787.44424
G0 F7200 X68.179 Y125.284
G1 F1800 X125.284 Y68.179 E2792.81633
G0 F7200 X125.85 Y68.179
G1 F1800 X68.179 Y125.85 E2798.24166
G0 F7200 X68.179 Y126.415
G1 F1800 X126.415 Y68.179 E2803.72015
G0 F7200 X126.981 Y68.179
G1 F1800 X68.179 Y126.981 E2809.25188
G0 F7200 X68.179 Y127.547
G1 F1800 X127.547 Y68.179 E2814.83686
G0 F7200 X128.112 Y68.179
G1 F1800 X68.179 Y128.112 E2820.47499
G0 F7200 X68.179 Y128.678
G1 F1800 X128.678 Y68.179 E2826.16636
G0 F7200 X129.244 Y68.179
G1 F1800 X68.179 Y129.244 E2831.91098
G0 F7200 X68.179 Y129.809
G1 F1800 X129.809 Y68.179 E2837.70876
G0 F7200 X130.375 Y68.179
G1 F1800 X68.179 Y130.375 E2843.55977
G0 F7200 X68.179 Y130.941
G1 F1800 X130.941 Y68.179 E2849.46404
G0 F7200 X131.507 Y68.179
G1 F1800 X68.179 Y131.507 E2855.42155
G0 F7200 X68.433 Y131.819
G1 F1800 X131.819 Y68.433 E2861.38451
G0 F7200 X131.819 Y68.998
G1 F1800 X68.998 Y131.819 E2867.29433
G0 F7200 X69.564 Y131.819
G1 F1800 X131.819 Y69.564 E2873.1509
G0 F7200 X131.819 Y70.13
G1 F1800 X70.13 Y131.819 E2878.95422
G0 F7200 X70.695 Y131.819
G1 F1800 X131.819 Y70.695 E2884.70439
G0 F7200 X131.819 Y71.261
G1 F1800 X71.261 Y131.819 E2890.40132
G0 F7200 X71.827 Y131.819
G1 F1800 X131.819 Y71.827 E2896.045
G0 F7200 X131.819 Y72.392
G1 F1800 X72.392 Y131.819 E2901.63552
G0 F7200 X72.958 Y131.819
G1 F1800 X131.819 Y72.958 E2907.17281
G0 F7200 X131.819 Y73.524
G1 F1800 X73.524 Y131.819 E2912.65684
G0 F7200 X74.089 Y131.819
G1 F1800 X131.819 Y74.089 E2918.08773
G0 F7200 X131.819 Y74.655
G1 F1800 X74.655 Y131.819 E2923.46537
G0 F7200 X75.221 Y131.819
G1 F1800 X131.819 Y75.221 E2928.78976
G0 F7200 X131.819 Y75.786
G1 F1800 X75.786 Y131.819 E2934.061
G0 F7200 X76.352 Y131.819
G1 F1800 X131.819 Y76.352 E2939.27899
G0 F7200 X131.819 Y76.918
G1 F1800 X76.918 Y131.819 E2944.44374
G0 F7200 X77.484 Y131.819
G1 F1800 X131.819 Y77.484 E2949.55525
G0 F7200 X131.819 Y78.049
G1 F1800 X78.049 Y131.819 E2954.6136
G0 F7200 X78.615 Y131.819
G1 F1800 X131.819 Y78.615 E2959.61871
G0 F7200 X131.819 Y79.181
G1 F1800 X79.181 Y131.819 E2964.57057
G0 F7200 X79.746 Y131.819
G1 F1800 X131.819 Y79.746 E2969.46927
G0 F7200 X131.819 Y80.312
G1 F1800 X80.312 Y131.819 E2974.31474
G0 F7200 X80.878 Y131.819
G1 F1800 X131.819 Y80.878 E2979.10695
G0 F7200 X131.819 Y81.443
G1 F1800 X81.443 Y131.819 E2983.84602
G0 F7200 X82.009 Y131.819
G1 F1800 X131.819 Y82.009 E2988.53184
G0 F7200 X131.819 Y82.575
G1 F1800 X82.575 Y131.819 E2993.16441
G0 F7200 X83.14 Y131.819
G1 F1800 X131.819 Y83.14 E2997.74383
G0 F7200 X131.819 Y83.706
G1 F1800 X83.706 Y131.819 E3002.27001
G0 F7200 X84.272 Y131.819
G1 F1800 X131.819 Y84.272 E3006.74294
G0 F7200 X131.819 Y84.837
G1 F1800 X84.837 Y131.819 E3011.16272
G0 F7200 X85.403 Y131.819
G1 F1800 X131.819 Y85.403 E3015.52925
G0 F7200 X131.819 Y85.969
G1 F1800 X85.969 Y131.819 E3019.84254
G0 F7200 X86.535 Y131.819
G1 F1800 X131.819 Y86.535 E3024.10258
G0 F7200 X131.819 Y87.1
G1 F1800 X87.1 Y131.819 E3028.30947
G0 F7200 X87.666 Y131.819
G1 F1800 X131.819 Y87.666 E3032.46311
G0 F7200 X131.819 Y88.232
G1 F1800 X88.232 Y131.819 E3036.56351
G0 F7200 X88.797 Y131.819
G1 F1800 X131.819 Y88.797 E3040.61076
G0 F7200 X131.819 Y89.363
G1 F1800 X89.363 Y131.819 E3044.60476
G0 F7200 X89.929 Y131.819
G1 F1800 X131.819 Y89.929 E3048.54551
G0 F7200 X131.819 Y90.494
G1 F1800 X90.494 Y131.819 E3052.43311
G0 F7200 X91.06 Y131.819
G1 F1800 X131.819 Y91.06 E3056.26747
G0 F7200 X131.819 Y91.626
G1 F1800 X91.626 Y131.819 E3060.04858
G0 F7200 X92.191 Y131.819
G1 F1800 X131.819 Y92.191 E3063.77654
G0 F7200 X131.819 Y92.757
G1 F1800 X92.757 Y131.819 E3067.45125
G0 F7200 X93.323 Y131.819
G1 F1800 X131.819 Y93.323 E3071.07272
G0 F7200 X131.819 Y93.888
G1 F1800 X93.888 Y131.819 E3074.64104
G0 F7200 X94.454 Y131.819
G1 F1800 X131.819 Y94.454 E3078.15611
G0 F7200 X131.819 Y95.02
G1 F1800 X95.02 Y131.819 E3081.61793
G0 F7200 X95.585 Y131.819
G1 F1800 X131.819 Y95.585 E3085.0266
G0 F7200 X131.819 Y96.151
G1 F1800 X96.151 Y131.819 E3088.38203
G0 F7200 X96.717 Y131.819
G1 F1800 X131.819 Y96.717 E3091.68421
G0 F7200 X131.819 Y97.283
G1 F1800 X97.283 Y131.819 E3094.93315
G0 F7200 X97.848 Y131.819
G1 F1800 X131.819 Y97.848 E3098.12893
G0 F7200 X131.819 Y98.414
G1 F1800 X98.414 Y131.819 E3101.27147
G0 F7200 X98.98 Y131.819
G1 F1800 X131.819 Y98.98 E3104.36076
G0 F7200 X131.819 Y99.545
G1 F1800 X99.545 Y131.819 E3107.3969
G0 F7200 X100.111 Y131.819
G1 F1800 X131.819 Y100.111 E3110.37979
G0 F7200 X131.819 Y100.677
G1 F1800 X100.677 Y131.819 E3113.30944
G0 F7200 X101.242 Y131.819
G1 F1800 X131.819 Y101.242 E3116.18594
G0 F7200 X131.819 Y101.808
G1 F1800 X101.808 Y131.819 E3119.00919
G0 F7200 X102.374 Y131.819
G1 F1800 X131.819 Y102.374 E3121.77919
G0 F7200 X131.819 Y102.939
G1 F1800 X102.939 Y131.819 E3124.49605
G0 F7200 X103.505 Y131.819
G1 F1800 X131.819 Y103.505 E3127.15966
G0 F7200 X131.819 Y104.071
G1 F1800 X104.071 Y131.819 E3129.77002
G0 F7200 X104.636 Y131.819
G1 F1800 X131.819 Y104.636 E3132.32723
G0 F7200 X131.819 Y105.202
G1 F1800 X105.202 Y131.819 E3134.83119
G0 F7200 X105.768 Y131.819
G1 F1800 X131.819 Y105.768 E3137.28191
G0 F7200 X131.819 Y106.334
G1 F1800 X106.334 Y131.819 E3139.67938
G0 F7200 X106.899 Y131.819
G1 F1800 X131.819 Y106.899 E3142.0237
G0 F7200 X131.819 Y107.465
G1 F1800 X107.465 Y131.819 E3144.31478
G0 F7200 X108.031 Y131.819
G1 F1800 X131.819 Y108.031 E3146.55261
G0 F7200 X131.819 Y108.596
G1 F1800 X108.596 Y131.819 E3148.73728
G0 F7200 X109.162 Y131.819
G1 F1800 X131.819 Y109.162 E3150.86872
G0 F7200 X131.819 Y109.728
G1 F1800 X109.728 Y131.819 E3152.9469
G0 F7200 X110.293 Y131.819
G1 F1800 X131.819 Y110.293 E3154.97194
G0 F7200 X131.819 Y110.859
G1 F1800 X110.859 Y131.819 E3156.94372
G0 F7200 X111.425 Y131.819
G1 F1800 X131.819 Y111.425 E3158.86227
G0 F7200 X131.819 Y111.99
G1 F1800 X111.99 Y131.819 E3160.72766
G0 F7200 X112.556 Y131.819
G1 F1800 X131.819 Y112.556 E3162.5398
G0 F7200 X131.819 Y113.122
G1 F1800 X113.122 Y131.819 E3164.2987
G0 F7200 X113.687 Y131.819
G1 F1800 X131.819 Y113.687 E3166.00445
G0 F7200 X131.819 Y114.253
G1 F1800 X114.253 Y131.819 E3167.65695
G0 F7200 X114.819 Y131.819
G1 F1800 X131.819 Y114.819 E3169.25621
G0 F7200 X131.819 Y115.384
G1 F1800 X115.384 Y131.819 E3170.80231
G0 F7200 X115.95 Y131.819
G1 F1800 X131.819 Y115.95 E3172.29517
G0 F7200 X131.819 Y116.516
G1 F1800 X116.516 Y131.819 E3173.73478
G0 F7200 X117.082 Y131.819
G1 F1800 X131.819 Y117.082 E3175.12115
G0 F7200 X131.819 Y117.647
G1 F1800 X117.647 Y131.819 E3176.45436
G0 F7200 X118.213 Y131.819
G1 F1800 X131.819 Y118.213 E3177.73433
G0 F7200 X131.819 Y118.779
G1 F1800 X118.779 Y131.819 E3178.96105
G0 F7200 X119.344 Y131.819
G1 F1800 X131.819 Y119.344 E3180.13463
G0 F7200 X131.819 Y119.91
G1 F1800 X119.91 Y131.819 E3181.25495
G0 F7200 X120.476 Y131.819
G1 F1800 X131.819 Y120.476 E3182.32203
G0 F7200 X131.819 Y121.041
G1 F1800 X121.041 Y131.819 E3183.33596
G0 F7200 X121.607 Y131.819
G1 F1800 X131.819 Y121.607 E3184.29664
G0 F7200 X131.819 Y122.173
G1 F1800 X122.173 Y131.819 E3185.20408
G0 F7200 X122.738 Y131.819
G1 F1800 X131.819 Y122.738 E3186.05836
G0 F7200 X131.819 Y123.304
G1 F1800 X123.304 Y131.819 E3186.8594
G0 F7200 X123.87 Y131.819
G1 F1800 X131.819 Y123.87 E3187.6072
G0 F7200 X131.819 Y124.435
G1 F1800 X124.435 Y131.819 E3188.30184
G0 F7200 X125.001 Y131.819
G1 F1800 X131.819 Y125.001 E3188.94323
G0 F7200 X131.819 Y125.567
G1 F1800 X125.567 Y131.819 E3189.53138
G0 F7200 X126.133 Y131.819
G1 F1800 X131.819 Y126.133 E3190.06629
G0 F7200 X131.819 Y126.698
G1 F1800 X126.698 Y131.819 E3190.54804
G0 F7200 X127.264 Y131.819
G1 F1800 X131.819 Y127.264 E3190.97655
G0 F7200 X131.819 Y127.83
G1 F1800 X127.83 Y131.819 E3191.35181
G0 F7200 X128.395 Y131.819
G1 F1800 X131.819 Y128.395 E3191.67391
G0 F7200 X131.819 Y128.961
G1 F1800 X128.961 Y131.819 E3191.94278
G0 F7200 X129.527 Y131.819
G1 F1800 X131.819 Y129.527 E3192.1584
G0 F7200 X131.819 Y130.092
G1 F1800 X130.092 Y131.819 E3192.32086
G0 F7200 X130.658 Y131.819
G1 F1800 X131.819 Y130.658 E3192.43008
G0 F7200 X131.819 Y131.224
G1 F1800 X131.224 Y131.819 E3192.48605
G1 X131.154 Y131.889
G0 F7200 X131.154 Y131.8
;LAYER:1
;TYPE:WALL-INNER
;MESH:inversion drehdingB.stl
G1 F3600 X67.6 Y132.4 E1746.27933
G1 X132.4 Y132.4 E1750.58985
G1 X132.4 Y100 E1752.7451
G1 X132.4 Y67.6 E1754.90036
G1 X67.6 Y67.6 E1759.21087
G0 F7200 X67.2 Y67.2
;TYPE:WALL-OUTER
G1 F1800 X67.2 Y132.8 E1763.5746
G1 X132.8 Y132.8 E1767.93833
G1 X132.8 Y100 E1770.1202
G1 X132.8 Y67.2 E1772.30206
G1 X67.2 Y67.2 E1776.66579
G0 F7200 X67.2 Y67.4
G0 X67.98 Y67.98
